src/assets/Outlined/D2.svg

<svg width="920" height="341" viewBox="0 0 920 341" fill="none" xmlns="http://www.w3.org/2000/svg">
<path d="M35.1661 80.8452C94.3508 41.5017 275.253 -25.9041 501.788 28.1937M500.694 27.4877C731.903 101.886 850.512 199.342 879.86 239.558M879.208 240.918C889.765 249.214 907.844 273.561 910.882 299.093M911.113 297.414C917.137 319.744 878.311 322.106 856.062 323.998M858.275 322.817C735.314 320.569 613.576 317.208 413.132 312.446M413.68 313.108C370.97 312.745 262.34 315.967 172.108 321.672M172.939 322.524C84.0129 328.392 24.8218 330.963 8 333.493" stroke="black" stroke-width="15" stroke-linecap="round"/>
</svg>

407 bytes → 360 bytes 88.45%
<svg xmlns="http://www.w3.org/2000/svg" width="920" height="341" fill="none"><path stroke="#000" stroke-linecap="round" stroke-width="15" d="M35.166 80.845c59.185-39.343 240.087-106.75 466.622-52.651m-1.094-.706c231.209 74.398 349.818 171.854 379.166 212.07m-.652 1.36c10.557 8.296 28.636 32.643 31.674 58.175m.231-1.679c6.024 22.33-32.802 24.692-55.051 26.584m2.213-1.181c-122.961-2.248-244.699-5.609-445.143-10.371m.548.662c-42.71-.363-151.34 2.859-241.572 8.564m.831.852C84.013 328.392 24.822 330.963 8 333.493"/></svg>
